!!!SOCIAL_FUNCTION:	corn dance songs
!!!PDT:	1957
!!!OTL: No_35_Song_Concerning_the_Clouds_and_Fog.krn
!!!LING_GROUP: Keresan
!!!LANG: Tone
!!!REG: Southwest
**kern
*staff1
=1-
*clefF4
*k[]
*M3/4
8G\L
8G\J
8G\L
8G\J
8G\L
8G\J
=2!|:
8g\L
8g\J
8g\L
8g\J
8g\L
8g\J
=3
*M2/4
16f\LL
16e\
16e\
16e\JJ
8d\L
8d\J
=4
*M3/4
8g\L
8g\J
8d\L
8d\J
8d\L
8d\J
=5
*M2/4
16d\LL
16c\
16c\
16A\JJ
8A\
8r
=6
*M3/4
8d\L
8d\J
8c\L
8c\J
8A\L
8A\J
=7
*M5/8
16A\LL
16G\J
8G\
8G\
8G\
16G\Jk
16r
=8
*M3/4
8c\L
8c\J
8A\L
8A\J
8A\L
8A\J
=9
*M2/4
8A\L
8B\J
16A\LL
16G\J
8G\J
=10
8G\L
8G\J
8G\
8r
=11
*M3/4
16B\LL
16G\J
8G\J
8G\L
8A\J
8G\L
8G\J
=12:|!|:
*M2/4
16A\LK
8.A\J
16e\LL
16d\
16c\
16c\JJ
=13
16d\LL
16c\
16c\
16A\JJ
8G\L
8G\J
=14
16A\LK
8.A\J
16e\LL
16d\
16d\
16c\JJ
=15
16d\LL
16c\
16c\
16A\JJ
4G\
=16
8.A\L
16A\Jk
4B\
=17
8.B\L
16B\Jk
8A\L
8G\J
=18
*M3/4
8A\L
8A\J
16A\LL
16G\J
8G\J
8G\L
16G\Jk
16r
=19
16B\LL
16G\J
8G\J
8G\L
8A\J
8G\L
8G\J
==:|!
*-
